;Generated with Cura_SteamEngine 15.01
; Default start code
G28 ; Home extruder
G1 Z15 F100
M107 ; Turn off fan
G90 ; Absolute positioning
M82 ; Extruder in absolute mode
M190 S50
; Activate all used extruder
M104 T0 S210
G92 E0 ; Reset extruder position
; Wait for all used extruders to reach temperature
M109 T0 S210
;Layer count: 94
;LAYER:0
M107
G0 F9000 X129.352 Y97.349 Z0.300
;TYPE:SKIRT
G1 F1800 X129.351 Y102.649 E0.26442
G1 X135.200 Y102.649 E0.55623
G1 X135.200 Y97.349 E0.82064
G1 X129.352 Y97.349 E1.11240
G0 F9000 X144.601 Y90.949
G1 F1800 X144.900 Y90.949 E1.12732
G1 X144.900 Y109.050 E2.03038
G1 X144.602 Y109.050 E2.04525
G1 X144.601 Y113.680 E2.27624
G1 X144.537 Y114.249 E2.30481
G1 X144.312 Y114.958 E2.34192
G1 X143.939 Y115.606 E2.37922
G1 X143.419 Y116.199 E2.41857
G1 X142.808 Y116.628 E2.45581
G1 X142.133 Y116.943 E2.49298
G1 X141.362 Y117.099 E2.53222
G1 X105.386 Y117.099 E4.32707
G1 X103.594 Y117.100 E4.41647
G1 X102.869 Y116.933 E4.45359
G1 X102.215 Y116.647 E4.48920
G1 X101.568 Y116.188 E4.52878
G1 X101.075 Y115.623 E4.56619
G1 X100.703 Y115.000 E4.60239
G1 X100.410 Y114.110 E4.64914
G1 X100.397 Y112.475 E4.73071
G1 X100.398 Y86.323 E6.03544
G1 X100.461 Y85.752 E6.06410
G1 X100.687 Y85.041 E6.10132
G1 X101.060 Y84.393 E6.13862
G1 X101.580 Y83.800 E6.17797
G1 X102.198 Y83.366 E6.21565
G1 X102.872 Y83.056 E6.25266
G1 X103.634 Y82.900 E6.29146
G1 X139.613 Y82.900 E8.08646
G1 X141.401 Y82.899 E8.17567
G1 X142.134 Y83.066 E8.21317
G1 X142.790 Y83.357 E8.24898
G1 X143.431 Y83.811 E8.28817
G1 X143.924 Y84.376 E8.32558
G1 X144.296 Y84.999 E8.36178
G1 X144.580 Y85.863 E8.40715
G1 X144.602 Y86.739 E8.45087
G1 X144.601 Y90.949 E8.66091
G0 F9000 X99.900 Y82.402
G1 F1800 X99.900 Y117.402 E10.40706
G1 X54.800 Y117.402 E12.65711
G1 X54.800 Y82.402 E14.40327
G1 X99.900 Y82.402 E16.65332
G1 F2400 E12.65332
G0 F9000 X104.198 Y86.700
;TYPE:WALL-INNER
G1 F2400 E16.65332
G1 F1800 X140.800 Y86.699 E18.47940
G1 X140.802 Y86.778 E18.48334
G1 X140.801 Y93.549 E18.82115
G1 X126.726 Y93.549 E19.52335
G1 X125.552 Y93.551 E19.58192
G1 X125.551 Y106.451 E20.22551
G1 X126.727 Y106.449 E20.28418
G1 X140.800 Y106.450 E20.98628
G1 X140.802 Y106.528 E20.99018
G1 X140.801 Y113.299 E21.32798
G1 X104.204 Y113.300 E23.15381
G1 X104.197 Y112.462 E23.19562
G1 X104.198 Y86.700 E24.48089
G0 F9000 X103.798 Y86.513
;TYPE:WALL-OUTER
G1 F1800 X103.804 Y86.461 E24.48351
G1 X103.818 Y86.416 E24.48586
G1 X103.838 Y86.381 E24.48787
G1 X103.865 Y86.350 E24.48992
G1 X103.899 Y86.327 E24.49197
G1 X103.939 Y86.308 E24.49418
G1 X141.020 Y86.299 E26.34416
G1 X141.101 Y86.327 E26.34843
G1 X141.132 Y86.349 E26.35033
G1 X141.184 Y86.420 E26.35472
G1 X141.194 Y86.450 E26.35630
G1 X141.202 Y86.778 E26.37266
G1 X141.201 Y93.737 E26.71985
G1 X141.195 Y93.788 E26.72241
G1 X141.181 Y93.833 E26.72476
G1 X141.161 Y93.868 E26.72677
G1 X141.134 Y93.899 E26.72883
G1 X141.062 Y93.941 E26.73298
G1 X125.952 Y93.950 E27.48683
G1 X125.951 Y106.050 E28.09050
G1 X141.018 Y106.050 E28.84219
G1 X141.101 Y106.077 E28.84655
G1 X141.132 Y106.099 E28.84844
G1 X141.184 Y106.170 E28.85283
G1 X141.194 Y106.200 E28.85441
G1 X141.202 Y106.528 E28.87078
G1 X141.201 Y113.487 E29.21797
G1 X141.195 Y113.538 E29.22053
G1 X141.181 Y113.582 E29.22283
G1 X141.161 Y113.618 E29.22489
G1 X141.134 Y113.649 E29.22694
G1 X141.062 Y113.691 E29.23110
G1 X103.980 Y113.700 E31.08112
G1 X103.940 Y113.691 E31.08317
G1 X103.867 Y113.650 E31.08735
G1 X103.815 Y113.578 E31.09178
G1 X103.806 Y113.551 E31.09320
G1 X103.797 Y112.462 E31.14753
G1 X103.798 Y86.513 E32.44213
G0 F9000 X104.337 Y87.083
;TYPE:SKIN
G1 F1800 X130.412 Y113.159 E34.28190
G0 F9000 X129.846 Y113.159
G1 F1800 X104.337 Y87.649 E36.08173
G0 F9000 X104.337 Y88.215
G1 F1800 X129.281 Y113.159 E37.84167
G0 F9000 X128.715 Y113.159
G1 F1800 X104.337 Y88.780 E39.56170
G0 F9000 X104.337 Y89.346
G1 F1800 X128.149 Y113.159 E41.24180
G0 F9000 X127.583 Y113.159
G1 F1800 X104.337 Y89.912 E42.88197
G0 F9000 X104.337 Y90.477
G1 F1800 X127.018 Y113.159 E44.48227
G0 F9000 X126.452 Y113.159
G1 F1800 X104.337 Y91.044 E46.04260
G0 F9000 X104.337 Y91.609
G1 F1800 X125.886 Y113.159 E47.56304
G0 F9000 X125.321 Y113.159
G1 F1800 X104.337 Y92.175 E49.04357
G0 F9000 X104.337 Y92.741
G1 F1800 X124.755 Y113.159 E50.48417
G0 F9000 X124.189 Y113.159
G1 F1800 X104.337 Y93.306 E51.88487
G0 F9000 X104.337 Y93.872
G1 F1800 X123.624 Y113.159 E53.24567
G0 F9000 X123.058 Y113.159
G1 F1800 X104.338 Y94.439 E54.56647
G0 F9000 X104.338 Y95.004
G1 F1800 X122.492 Y113.159 E55.84737
G0 F9000 X121.927 Y113.159
G1 F1800 X104.338 Y95.570 E57.08837
G0 F9000 X104.338 Y96.136
G1 F1800 X121.361 Y113.159 E58.28943
G0 F9000 X120.795 Y113.159
G1 F1800 X104.338 Y96.701 E59.45060
G0 F9000 X104.338 Y97.267
G1 F1800 X120.230 Y113.159 E60.57186
G0 F9000 X125.541 Y106.591
G1 F1800 X132.109 Y113.159 E61.03527
G0 F9000 X131.543 Y113.159
G1 F1800 X105.225 Y86.840 E62.89218
G0 F9000 X105.790 Y86.840
G1 F1800 X125.411 Y106.460 E64.27652
G0 F9000 X125.411 Y105.894
G1 F1800 X106.356 Y86.840 E65.62091
G0 F9000 X106.922 Y86.840
G1 F1800 X125.411 Y105.329 E66.92541
G0 F9000 X125.411 Y104.763
G1 F1800 X107.488 Y86.840 E68.18998
G0 F9000 X108.053 Y86.840
G1 F1800 X125.411 Y104.197 E69.41464
G0 F9000 X125.411 Y103.632
G1 F1800 X108.619 Y86.840 E70.59941
G0 F9000 X109.185 Y86.840
G1 F1800 X125.411 Y103.066 E71.74424
G0 F9000 X125.411 Y102.500
G1 F1800 X109.750 Y86.840 E72.84917
G0 F9000 X110.316 Y86.840
G1 F1800 X125.411 Y101.935 E73.91421
G0 F9000 X125.411 Y101.369
G1 F1800 X110.882 Y86.840 E74.93931
G0 F9000 X111.447 Y86.840
G1 F1800 X125.411 Y100.803 E75.92451
G0 F9000 X125.411 Y100.238
G1 F1800 X112.013 Y86.840 E76.86981
G0 F9000 X112.579 Y86.840
G1 F1800 X125.411 Y99.673 E77.77521
G0 F9000 X125.411 Y99.107
G1 F1800 X113.144 Y86.840 E78.64071
G0 F9000 X113.710 Y86.840
G1 F1800 X125.411 Y98.541 E79.46628
G0 F9000 X125.411 Y97.976
G1 F1800 X114.276 Y86.840 E80.25195
G0 F9000 X114.841 Y86.840
G1 F1800 X125.411 Y97.410 E80.99772
G0 F9000 X125.411 Y96.844
G1 F1800 X115.407 Y86.840 E81.70356
G0 F9000 X115.973 Y86.840
G1 F1800 X125.411 Y96.278 E82.36946
G0 F9000 X125.411 Y95.713
G1 F1800 X116.538 Y86.840 E82.99550
G0 F9000 X117.104 Y86.840
G1 F1800 X125.411 Y95.147 E83.58160
G0 F9000 X125.411 Y94.581
G1 F1800 X117.670 Y86.840 E84.12777
G0 F9000 X118.236 Y86.840
G1 F1800 X125.411 Y94.016 E84.63404
G0 F9000 X125.411 Y93.450
G1 F1800 X118.801 Y86.840 E85.10041
G0 F9000 X119.367 Y86.840
G1 F1800 X125.937 Y93.410 E85.56396
G0 F9000 X126.502 Y93.410
G1 F1800 X119.933 Y86.840 E86.02748
G0 F9000 X104.659 Y86.840
G1 F1800 X130.978 Y113.159 E87.88442
G0 F9000 X132.675 Y113.159
G1 F1800 X126.107 Y106.591 E88.34783
G0 F9000 X126.673 Y106.591
G1 F1800 X133.240 Y113.159 E88.81121
G0 F9000 X133.806 Y113.159
G1 F1800 X127.238 Y106.591 E89.27461
G0 F9000 X127.804 Y106.591
G1 F1800 X134.372 Y113.159 E89.73802
G0 F9000 X134.937 Y113.159
G1 F1800 X128.370 Y106.591 E90.20139
G0 F9000 X128.935 Y106.591
G1 F1800 X135.503 Y113.159 E90.66480
G0 F9000 X136.069 Y113.159
G1 F1800 X129.501 Y106.591 E91.12821
G0 F9000 X130.067 Y106.591
G1 F1800 X136.634 Y113.159 E91.59158
G0 F9000 X137.200 Y113.159
G1 F1800 X130.633 Y106.591 E92.05495
G0 F9000 X131.198 Y106.591
G1 F1800 X137.766 Y113.159 E92.51836
G0 F9000 X138.332 Y113.159
G1 F1800 X131.764 Y106.591 E92.98177
G0 F9000 X132.330 Y106.591
G1 F1800 X138.897 Y113.159 E93.44514
G0 F9000 X139.463 Y113.159
G1 F1800 X132.895 Y106.591 E93.90855
G0 F9000 X133.460 Y106.590
G1 F1800 X140.029 Y113.159 E94.37203
G0 F9000 X140.594 Y113.159
G1 F1800 X134.026 Y106.590 E94.83547
G0 F9000 X134.592 Y106.590
G1 F1800 X140.660 Y112.659 E95.26364
G0 F9000 X140.660 Y112.093
G1 F1800 X135.157 Y106.590 E95.65190
G0 F9000 X135.723 Y106.590
G1 F1800 X140.660 Y111.527 E96.00024
G0 F9000 X140.660 Y110.962
G1 F1800 X136.289 Y106.590 E96.30867
G0 F9000 X136.854 Y106.590
G1 F1800 X140.660 Y110.396 E96.57720
G0 F9000 X140.661 Y109.831
G1 F1800 X137.420 Y106.590 E96.80587
G0 F9000 X137.986 Y106.590
G1 F1800 X140.661 Y109.265 E96.99461
G0 F9000 X140.661 Y108.699
G1 F1800 X138.551 Y106.590 E97.14345
G0 F9000 X139.117 Y106.590
G1 F1800 X140.661 Y108.134 E97.25238
G0 F9000 X140.661 Y107.568
G1 F1800 X139.683 Y106.590 E97.32139
G0 F9000 X140.248 Y106.590
G1 F1800 X140.661 Y107.002 E97.35049
G0 F9000 X125.610 Y106.392
G0 X125.611 Y93.609
G0 X140.643 Y93.408
G1 F1800 X134.074 Y86.839 E97.81397
G0 F9000 X133.508 Y86.839
G1 F1800 X140.077 Y93.408 E98.27745
G0 F9000 X140.661 Y92.860
G1 F1800 X134.640 Y86.839 E98.70226
G0 F9000 X135.205 Y86.839
G1 F1800 X140.661 Y92.295 E99.08721
G0 F9000 X140.661 Y91.729
G1 F1800 X135.771 Y86.839 E99.43223
G0 F9000 X136.337 Y86.839
G1 F1800 X140.661 Y91.163 E99.73731
G0 F9000 X140.661 Y90.598
G1 F1800 X136.902 Y86.839 E100.00253
G0 F9000 X137.468 Y86.839
G1 F1800 X140.661 Y90.032 E100.22781
G0 F9000 X140.661 Y89.466
G1 F1800 X138.034 Y86.839 E100.41316
G0 F9000 X138.600 Y86.839
G1 F1800 X140.661 Y88.901 E100.55861
G0 F9000 X140.661 Y88.335
G1 F1800 X139.165 Y86.839 E100.66416
G0 F9000 X139.731 Y86.839
G1 F1800 X140.661 Y87.769 E100.72978
G0 F9000 X140.661 Y87.203
G1 F1800 X140.297 Y86.839 E100.75546
G0 F9000 X139.512 Y93.408
G1 F1800 X132.943 Y86.839 E101.21894
G0 F9000 X132.377 Y86.839
G1 F1800 X138.946 Y93.408 E101.68242
G0 F9000 X138.380 Y93.408
G1 F1800 X131.811 Y86.839 E102.14589
G0 F9000 X131.246 Y86.839
G1 F1800 X137.815 Y93.408 E102.60937
G0 F9000 X137.249 Y93.408
G1 F1800 X130.680 Y86.839 E103.07285
G0 F9000 X130.114 Y86.839
G1 F1800 X136.683 Y93.408 E103.53633
G0 F9000 X136.118 Y93.408
G1 F1800 X129.549 Y86.839 E103.99981
G0 F9000 X128.983 Y86.839
G1 F1800 X135.553 Y93.409 E104.46336
G0 F9000 X134.987 Y93.409
G1 F1800 X128.417 Y86.839 E104.92691
G0 F9000 X127.851 Y86.839
G1 F1800 X134.421 Y93.409 E105.39045
G0 F9000 X133.856 Y93.409
G1 F1800 X127.286 Y86.839 E105.85400
G0 F9000 X126.720 Y86.839
G1 F1800 X133.290 Y93.409 E106.31755
G0 F9000 X132.724 Y93.409
G1 F1800 X126.154 Y86.839 E106.78110
G0 F9000 X125.589 Y86.839
G1 F1800 X132.158 Y93.409 E107.24462
G0 F9000 X131.593 Y93.409
G1 F1800 X125.023 Y86.839 E107.70816
G0 F9000 X124.457 Y86.839
G1 F1800 X131.027 Y93.409 E108.17171
G0 F9000 X130.462 Y93.410
G1 F1800 X123.892 Y86.839 E108.63530
G0 F9000 X123.326 Y86.839
G1 F1800 X129.896 Y93.410 E109.09888
G0 F9000 X129.331 Y93.410
G1 F1800 X122.760 Y86.839 E109.56250
G0 F9000 X122.195 Y86.840
G1 F1800 X128.765 Y93.410 E110.02605
G0 F9000 X128.199 Y93.410
G1 F1800 X121.630 Y86.840 E110.48956
G0 F9000 X121.064 Y86.840
G1 F1800 X127.634 Y93.410 E110.95311
G0 F9000 X127.068 Y93.410
G1 F1800 X120.498 Y86.840 E111.41666
G0 F9000 X104.338 Y97.833
G1 F1800 X119.664 Y113.159 E112.49799
G0 F9000 X119.098 Y113.159
G1 F1800 X104.339 Y98.399 E113.53936
G0 F9000 X104.339 Y98.965
G1 F1800 X118.533 Y113.159 E114.54082
G0 F9000 X117.967 Y113.159
G1 F1800 X104.339 Y99.530 E115.50238
G0 F9000 X104.339 Y100.096
G1 F1800 X117.401 Y113.159 E116.42401
G0 F9000 X116.835 Y113.159
G1 F1800 X104.339 Y100.662 E117.30571
G0 F9000 X104.339 Y101.227
G1 F1800 X116.270 Y113.159 E118.14754
G0 F9000 X115.704 Y113.159
G1 F1800 X104.339 Y101.793 E118.94944
G0 F9000 X104.339 Y102.360
G1 F1800 X115.138 Y113.159 E119.71137
G0 F9000 X114.573 Y113.159
G1 F1800 X104.339 Y102.925 E120.43343
G0 F9000 X104.339 Y103.491
G1 F1800 X114.007 Y113.159 E121.11556
G0 F9000 X113.441 Y113.159
G1 F1800 X104.339 Y104.057 E121.75776
G0 F9000 X104.339 Y104.622
G1 F1800 X112.876 Y113.159 E122.36009
G0 F9000 X112.310 Y113.159
G1 F1800 X104.339 Y105.188 E122.92248
G0 F9000 X104.340 Y105.754
G1 F1800 X111.744 Y113.159 E123.44491
G0 F9000 X111.179 Y113.159
G1 F1800 X104.340 Y106.320 E123.92744
G0 F9000 X104.340 Y106.886
G1 F1800 X110.613 Y113.159 E124.37003
G0 F9000 X110.047 Y113.159
G1 F1800 X104.340 Y107.451 E124.77273
G0 F9000 X104.340 Y108.017
G1 F1800 X109.482 Y113.159 E125.13552
G0 F9000 X108.916 Y113.159
G1 F1800 X104.340 Y108.583 E125.45839
G0 F9000 X104.340 Y109.149
G1 F1800 X108.350 Y113.159 E125.74131
G0 F9000 X107.784 Y113.159
G1 F1800 X104.341 Y109.715 E125.98427
G0 F9000 X104.341 Y110.281
G1 F1800 X107.219 Y113.159 E126.18733
G0 F9000 X106.653 Y113.159
G1 F1800 X104.341 Y110.846 E126.35049
G0 F9000 X104.341 Y111.412
G1 F1800 X106.087 Y113.159 E126.47371
G0 F9000 X105.522 Y113.159
G1 F1800 X104.341 Y111.978 E126.55704
G0 F9000 X104.341 Y112.543
G1 F1800 X104.956 Y113.159 E126.60047
G1 F2400 E122.60047
G0 F9000 X96.700 Y114.202
;TYPE:SUPPORT
G1 F2400 E126.60047
G1 F1800 X58.000 Y114.202 E128.53122
G1 X58.000 Y85.602 E129.95808
G1 X96.700 Y85.602 E131.88883
G1 X96.700 Y114.202 E133.31569
G0 F9000 X96.600 Y114.192
G0 X90.100 Y109.954
G0 X90.000 Y109.964
G1 F1800 X90.000 Y105.840 E133.52143
G1 X64.700 Y105.999 E134.78368
G1 X64.700 Y109.805 E134.97356
G1 X90.000 Y109.964 E136.23581
G0 F9000 X90.100 Y109.954
G0 X90.100 Y93.954
G0 X90.000 Y93.964
G1 F1800 X90.000 Y89.840 E136.44156
G1 X64.700 Y89.999 E137.70381
G1 X64.700 Y93.805 E137.89369
G1 X90.000 Y93.964 E139.15593
G0 F9000 X89.939 Y93.310
G1 F1800 X96.759 Y93.310 E139.49619
G0 F9000 X96.600 Y93.310
G0 X96.600 Y98.642
G0 X96.759 Y98.642
G1 F1800 X57.939 Y98.642 E141.43292
G0 F9000 X58.100 Y98.642
G0 X58.100 Y93.310
G0 X57.939 Y93.310
G1 F1800 X64.759 Y93.310 E141.77317
G0 F9000 X64.600 Y93.310
G0 X64.559 Y93.946
G0 X66.649 Y93.917
G0 X66.650 Y93.757
G1 F1800 X66.650 Y106.048 E142.38637
G0 F9000 X66.649 Y105.886
G0 X90.141 Y105.699
G0 X90.141 Y110.105
G0 X66.649 Y109.917
G0 X66.650 Y109.757
G1 F1800 X66.650 Y114.262 E142.61113
G0 F9000 X66.650 Y114.102
G0 X64.559 Y109.946
G0 X64.600 Y109.306
G0 X64.759 Y109.306
G1 F1800 X57.939 Y109.306 E142.95138
G0 F9000 X58.100 Y109.306
G0 X58.100 Y103.974
G0 X57.939 Y103.974
G1 F1800 X96.759 Y103.974 E144.88812
G0 F9000 X96.600 Y103.974
G0 X96.600 Y109.306
G0 X96.759 Y109.306
G1 F1800 X89.939 Y109.306 E145.22837
G0 F9000 X90.100 Y109.306
G0 X90.141 Y110.105
G0 X87.978 Y110.051
G0 X87.978 Y109.892
G1 F1800 X87.978 Y114.262 E145.44639
G0 F9000 X87.978 Y114.102
G0 X82.646 Y114.102
G0 X82.646 Y114.262
G1 F1800 X82.646 Y109.858 E145.66611
G0 F9000 X82.646 Y110.017
G0 X64.559 Y109.946
G0 X64.559 Y105.858
G0 X82.646 Y105.786
G0 X82.646 Y105.947
G1 F1800 X82.646 Y93.858 E146.26923
G0 F9000 X82.646 Y94.017
G0 X64.559 Y93.946
G0 X64.559 Y89.858
G0 X82.646 Y89.786
G0 X82.646 Y89.947
G1 F1800 X82.646 Y85.542 E146.48900
G0 F9000 X82.646 Y85.702
G0 X87.978 Y85.702
G0 X87.978 Y85.542
G1 F1800 X87.978 Y89.913 E146.70707
G0 F9000 X87.978 Y89.752
G0 X90.141 Y89.699
G0 X90.141 Y94.105
G0 X87.978 Y94.051
G0 X87.978 Y93.892
G1 F1800 X87.978 Y105.913 E147.30680
G0 F9000 X87.978 Y105.752
G0 X90.141 Y105.699
G0 X93.310 Y114.102
G0 X93.310 Y114.262
G1 F1800 X93.310 Y85.542 E148.73964
G0 F9000 X93.310 Y85.702
G0 X96.600 Y87.978
G0 X96.759 Y87.978
G1 F1800 X57.939 Y87.978 E150.67638
G0 F9000 X58.100 Y87.978
G0 X61.318 Y85.702
G0 X61.318 Y85.542
G1 F1800 X61.318 Y114.262 E152.10923
G0 F9000 X61.318 Y114.102
G0 X71.982 Y114.102
G0 X71.982 Y114.262
G1 F1800 X71.982 Y109.791 E152.33229
G0 F9000 X71.981 Y109.950
G0 X64.559 Y109.946
G0 X64.559 Y105.858
G0 X71.981 Y105.853
G0 X71.982 Y106.014
G1 F1800 X71.982 Y93.791 E152.94209
G0 F9000 X71.981 Y93.950
G0 X64.559 Y93.946
G0 X64.559 Y89.858
G0 X71.981 Y89.853
G0 X71.982 Y90.014
G1 F1800 X71.982 Y85.542 E153.16520
G0 F9000 X71.982 Y85.702
G0 X66.650 Y85.702
G0 X66.650 Y85.542
G1 F1800 X66.650 Y90.048 E153.39001
G0 F9000 X66.649 Y89.886
G0 X77.314 Y89.819
G0 X77.314 Y89.980
G1 F1800 X77.314 Y85.542 E153.61142
G0 F9000 X77.314 Y85.702
G0 X90.141 Y89.699
G0 X90.141 Y94.105
G0 X77.314 Y93.984
