;Generated with Cura_SteamEngine 15.01
; Default start code
G28 ; Home extruder
G1 Z15 F100
M107 ; Turn off fan
G90 ; Absolute positioning
M82 ; Extruder in absolute mode
M190 S50
; Activate all used extruder
M104 T0 S210
G92 E0 ; Reset extruder position
; Wait for all used extruders to reach temperature
M109 T0 S210
;Layer count: 94
;LAYER:0
M107
G0 F9000 X129.352 Y97.350 Z0.300
;TYPE:SKIRT
G1 F1800 X129.351 Y102.651 E0.26447
G1 X135.199 Y102.652 E0.55623
G1 X135.199 Y97.350 E0.82074
G1 X129.352 Y97.350 E1.11245
G0 F9000 X144.602 Y90.951
G1 F1800 X144.899 Y90.951 E1.12727
G1 X144.899 Y109.053 E2.03038
G1 X144.601 Y109.053 E2.04525
G1 X144.600 Y113.682 E2.27619
G1 X144.537 Y114.245 E2.30445
G1 X144.314 Y114.957 E2.34168
G1 X143.938 Y115.609 E2.37923
G1 X143.408 Y116.214 E2.41935
G1 X142.807 Y116.627 E2.45574
G1 X142.133 Y116.950 E2.49302
G1 X141.342 Y117.101 E2.53320
G1 X105.385 Y117.099 E4.32710
G1 X103.593 Y117.100 E4.41650
G1 X102.868 Y116.933 E4.45362
G1 X102.214 Y116.647 E4.48923
G1 X101.567 Y116.188 E4.52881
G1 X101.074 Y115.623 E4.56622
G1 X100.702 Y115.000 E4.60242
G1 X100.409 Y114.110 E4.64917
G1 X100.396 Y112.475 E4.73074
G1 X100.399 Y86.320 E6.03562
G1 X100.462 Y85.757 E6.06388
G1 X100.685 Y85.045 E6.10111
G1 X101.061 Y84.393 E6.13866
G1 X101.581 Y83.800 E6.17800
G1 X102.192 Y83.371 E6.21525
G1 X102.867 Y83.056 E6.25241
G1 X103.639 Y82.900 E6.29171
G1 X139.614 Y82.903 E8.08651
G1 X141.387 Y82.902 E8.17496
G1 X142.129 Y83.064 E8.21285
G1 X142.785 Y83.359 E8.24874
G1 X143.421 Y83.801 E8.28738
G1 X143.931 Y84.386 E8.32610
G1 X144.300 Y85.012 E8.36235
G1 X144.581 Y85.866 E8.40720
G1 X144.603 Y86.741 E8.45087
G1 X144.602 Y90.951 E8.66091
G0 F9000 X99.899 Y82.400
G1 F1800 X99.899 Y117.400 E10.40707
G1 X54.799 Y117.400 E12.65712
G1 X54.799 Y82.400 E14.40327
G1 X99.899 Y82.400 E16.65332
G1 F2400 E12.65332
G0 F9000 X104.199 Y86.700
;TYPE:WALL-INNER
G1 F2400 E16.65332
G1 F1800 X140.801 Y86.702 E18.47940
G1 X140.803 Y86.780 E18.48329
G1 X140.801 Y93.551 E18.82110
G1 X126.726 Y93.550 E19.52331
G1 X125.552 Y93.552 E19.58188
G1 X125.551 Y106.453 E20.22551
G1 X126.727 Y106.451 E20.28418
G1 X140.800 Y106.453 E20.98629
G1 X140.802 Y106.530 E20.99013
G1 X140.800 Y113.301 E21.32794
G1 X104.203 Y113.300 E23.15377
G1 X104.196 Y112.462 E23.19558
G1 X104.199 Y86.700 E24.48085
G0 F9000 X103.799 Y86.513
;TYPE:WALL-OUTER
G1 F1800 X103.805 Y86.461 E24.48346
G1 X103.819 Y86.416 E24.48581
G1 X103.839 Y86.381 E24.48782
G1 X103.866 Y86.350 E24.48987
G1 X103.938 Y86.308 E24.49403
G1 X103.979 Y86.300 E24.49612
G1 X141.023 Y86.302 E26.34425
G1 X141.102 Y86.329 E26.34841
G1 X141.133 Y86.351 E26.35031
G1 X141.184 Y86.420 E26.35459
G1 X141.195 Y86.453 E26.35633
G1 X141.203 Y86.780 E26.37265
G1 X141.201 Y93.742 E26.71998
G1 X141.196 Y93.791 E26.72244
G1 X141.183 Y93.832 E26.72458
G1 X141.161 Y93.871 E26.72682
G1 X141.134 Y93.902 E26.72887
G1 X141.060 Y93.944 E26.73311
G1 X125.952 Y93.951 E27.48686
G1 X125.951 Y106.052 E28.09058
G1 X141.021 Y106.053 E28.84242
G1 X141.050 Y106.059 E28.84390
G1 X141.132 Y106.105 E28.84859
G1 X141.186 Y106.180 E28.85320
G1 X141.194 Y106.203 E28.85442
G1 X141.202 Y106.530 E28.87073
G1 X141.200 Y113.489 E29.21792
G1 X141.181 Y113.584 E29.22275
G1 X141.160 Y113.621 E29.22488
G1 X141.133 Y113.652 E29.22693
G1 X141.059 Y113.694 E29.23117
G1 X141.024 Y113.701 E29.23295
G1 X103.979 Y113.700 E31.08114
G1 X103.939 Y113.691 E31.08318
G1 X103.866 Y113.650 E31.08736
G1 X103.814 Y113.578 E31.09179
G1 X103.805 Y113.551 E31.09321
G1 X103.796 Y112.462 E31.14754
G1 X103.799 Y86.513 E32.44214
G0 F9000 X104.337 Y87.084
;TYPE:SKIN
G1 F1800 X130.413 Y113.160 E34.28195
G0 F9000 X129.848 Y113.160
G1 F1800 X104.337 Y87.650 E36.08185
G0 F9000 X104.337 Y88.215
G1 F1800 X129.282 Y113.160 E37.84185
G0 F9000 X128.716 Y113.160
G1 F1800 X104.337 Y88.781 E39.56192
G0 F9000 X104.337 Y89.347
G1 F1800 X128.150 Y113.159 E41.24202
G0 F9000 X127.584 Y113.159
G1 F1800 X104.337 Y89.912 E42.88223
G0 F9000 X104.337 Y90.478
G1 F1800 X127.019 Y113.159 E44.48253
G0 F9000 X126.453 Y113.159
G1 F1800 X104.337 Y91.044 E46.04290
G0 F9000 X104.337 Y91.609
G1 F1800 X125.887 Y113.159 E47.56336
G0 F9000 X125.321 Y113.159
G1 F1800 X104.338 Y92.176 E49.04383
G0 F9000 X104.338 Y92.742
G1 F1800 X124.756 Y113.159 E50.48439
G0 F9000 X124.190 Y113.159
G1 F1800 X104.338 Y93.307 E51.88506
G0 F9000 X104.338 Y93.873
G1 F1800 X123.624 Y113.159 E53.24579
G0 F9000 X123.059 Y113.159
G1 F1800 X104.338 Y94.439 E54.56662
G0 F9000 X104.338 Y95.004
G1 F1800 X122.493 Y113.159 E55.84756
G0 F9000 X121.927 Y113.159
G1 F1800 X104.338 Y95.570 E57.08856
G0 F9000 X104.338 Y96.136
G1 F1800 X121.362 Y113.159 E58.28966
G0 F9000 X120.796 Y113.159
G1 F1800 X104.338 Y96.701 E59.45086
G0 F9000 X104.338 Y97.267
G1 F1800 X120.230 Y113.159 E60.57212
G0 F9000 X125.543 Y106.592
G1 F1800 X132.110 Y113.160 E61.03550
G0 F9000 X131.545 Y113.160
G1 F1800 X105.225 Y86.840 E62.89251
G0 F9000 X105.790 Y86.840
G1 F1800 X125.411 Y106.460 E64.27685
G0 F9000 X125.411 Y105.894
G1 F1800 X106.356 Y86.840 E65.62124
G0 F9000 X106.922 Y86.840
G1 F1800 X125.411 Y105.329 E66.92574
G0 F9000 X125.411 Y104.763
G1 F1800 X107.488 Y86.840 E68.19031
G0 F9000 X108.053 Y86.840
G1 F1800 X125.411 Y104.197 E69.41497
G0 F9000 X125.411 Y103.632
G1 F1800 X108.619 Y86.840 E70.59974
G0 F9000 X109.185 Y86.840
G1 F1800 X125.411 Y103.066 E71.74457
G0 F9000 X125.411 Y102.500
G1 F1800 X109.750 Y86.840 E72.84950
G0 F9000 X110.316 Y86.840
G1 F1800 X125.411 Y101.935 E73.91454
G0 F9000 X125.411 Y101.369
G1 F1800 X110.882 Y86.840 E74.93964
G0 F9000 X111.447 Y86.840
G1 F1800 X125.411 Y100.803 E75.92484
G0 F9000 X125.411 Y100.238
G1 F1800 X112.013 Y86.840 E76.87014
G0 F9000 X112.579 Y86.840
G1 F1800 X125.411 Y99.672 E77.77550
G0 F9000 X125.411 Y99.106
G1 F1800 X113.144 Y86.840 E78.64097
G0 F9000 X113.710 Y86.840
G1 F1800 X125.411 Y98.540 E79.46651
G0 F9000 X125.411 Y97.975
G1 F1800 X114.276 Y86.840 E80.25214
G0 F9000 X114.841 Y86.840
G1 F1800 X125.411 Y97.409 E80.99788
G0 F9000 X125.411 Y96.843
G1 F1800 X115.407 Y86.840 E81.70368
G0 F9000 X115.973 Y86.840
G1 F1800 X125.411 Y96.278 E82.36958
G0 F9000 X125.411 Y95.712
G1 F1800 X116.539 Y86.841 E82.99551
G0 F9000 X117.105 Y86.841
G1 F1800 X125.411 Y95.146 E83.58151
G0 F9000 X125.411 Y94.581
G1 F1800 X117.671 Y86.841 E84.12761
G0 F9000 X118.236 Y86.841
G1 F1800 X125.411 Y94.015 E84.63381
G0 F9000 X125.411 Y93.449
G1 F1800 X118.802 Y86.841 E85.10007
G0 F9000 X119.368 Y86.841
G1 F1800 X125.937 Y93.410 E85.56355
G0 F9000 X126.503 Y93.410
G1 F1800 X119.933 Y86.841 E86.02706
G0 F9000 X104.659 Y86.840
G1 F1800 X130.979 Y113.160 E87.88408
G0 F9000 X132.676 Y113.160
G1 F1800 X126.108 Y106.592 E88.34749
G0 F9000 X126.674 Y106.592
G1 F1800 X133.242 Y113.160 E88.81090
G0 F9000 X133.807 Y113.160
G1 F1800 X127.240 Y106.592 E89.27427
G0 F9000 X127.806 Y106.592
G1 F1800 X134.373 Y113.160 E89.73764
G0 F9000 X134.939 Y113.160
G1 F1800 X128.371 Y106.592 E90.20105
G0 F9000 X128.937 Y106.592
G1 F1800 X135.504 Y113.160 E90.66442
G0 F9000 X136.070 Y113.160
G1 F1800 X129.503 Y106.592 E91.12780
G0 F9000 X130.068 Y106.592
G1 F1800 X136.636 Y113.160 E91.59120
G0 F9000 X137.202 Y113.160
G1 F1800 X130.634 Y106.592 E92.05461
G0 F9000 X131.200 Y106.592
G1 F1800 X137.767 Y113.160 E92.51799
G0 F9000 X138.333 Y113.160
G1 F1800 X131.765 Y106.592 E92.98139
G0 F9000 X132.331 Y106.592
G1 F1800 X138.899 Y113.160 E93.44480
G0 F9000 X139.464 Y113.160
G1 F1800 X132.897 Y106.592 E93.90817
G0 F9000 X133.462 Y106.592
G1 F1800 X140.030 Y113.160 E94.37158
G0 F9000 X140.596 Y113.160
G1 F1800 X134.028 Y106.592 E94.83499
G0 F9000 X134.594 Y106.592
G1 F1800 X140.659 Y112.658 E95.26294
G0 F9000 X140.659 Y112.092
G1 F1800 X135.159 Y106.592 E95.65100
G0 F9000 X135.725 Y106.592
G1 F1800 X140.659 Y111.527 E95.99915
G0 F9000 X140.660 Y110.962
G1 F1800 X136.291 Y106.592 E96.30745
G0 F9000 X136.856 Y106.592
G1 F1800 X140.660 Y110.396 E96.57584
G0 F9000 X140.660 Y109.830
G1 F1800 X137.422 Y106.592 E96.80430
G0 F9000 X137.988 Y106.592
G1 F1800 X140.660 Y109.264 E96.99282
G0 F9000 X140.661 Y108.699
G1 F1800 X138.554 Y106.592 E97.14148
G0 F9000 X139.119 Y106.592
G1 F1800 X140.661 Y108.134 E97.25028
G0 F9000 X140.661 Y107.568
G1 F1800 X139.685 Y106.592 E97.31914
G0 F9000 X140.251 Y106.592
G1 F1800 X140.661 Y107.002 E97.34807
G0 F9000 X125.610 Y106.394
G0 X125.611 Y93.610
G0 X140.645 Y93.410
G1 F1800 X134.076 Y86.841 E97.81155
G0 F9000 X133.510 Y86.841
G1 F1800 X140.079 Y93.410 E98.27502
G0 F9000 X140.660 Y92.860
G1 F1800 X134.642 Y86.841 E98.69966
G0 F9000 X135.208 Y86.841
G1 F1800 X140.660 Y92.294 E99.08436
G0 F9000 X140.661 Y91.729
G1 F1800 X135.773 Y86.841 E99.42924
G0 F9000 X136.339 Y86.841
G1 F1800 X140.661 Y91.163 E99.73418
G0 F9000 X140.661 Y90.598
G1 F1800 X136.905 Y86.841 E99.99922
G0 F9000 X137.470 Y86.841
G1 F1800 X140.661 Y90.033 E100.22440
G0 F9000 X140.661 Y89.467
G1 F1800 X138.036 Y86.841 E100.40964
G0 F9000 X138.602 Y86.841
G1 F1800 X140.661 Y88.901 E100.55495
G0 F9000 X140.662 Y88.336
G1 F1800 X139.167 Y86.841 E100.66043
G0 F9000 X139.733 Y86.841
G1 F1800 X140.662 Y87.771 E100.72601
G0 F9000 X140.662 Y87.205
G1 F1800 X140.299 Y86.841 E100.75166
G0 F9000 X139.514 Y93.410
G1 F1800 X132.945 Y86.841 E101.21514
G0 F9000 X132.379 Y86.841
G1 F1800 X138.948 Y93.410 E101.67862
G0 F9000 X138.382 Y93.410
G1 F1800 X131.813 Y86.841 E102.14209
G0 F9000 X131.248 Y86.841
G1 F1800 X137.817 Y93.410 E102.60557
G0 F9000 X137.251 Y93.410
G1 F1800 X130.682 Y86.841 E103.06905
G0 F9000 X130.116 Y86.841
G1 F1800 X136.685 Y93.410 E103.53253
G0 F9000 X136.120 Y93.410
G1 F1800 X129.551 Y86.841 E103.99601
G0 F9000 X128.985 Y86.841
G1 F1800 X135.554 Y93.410 E104.45949
G0 F9000 X134.988 Y93.410
G1 F1800 X128.419 Y86.841 E104.92297
G0 F9000 X127.853 Y86.841
G1 F1800 X134.423 Y93.410 E105.38648
G0 F9000 X133.857 Y93.410
G1 F1800 X127.287 Y86.841 E105.84999
G0 F9000 X126.722 Y86.841
G1 F1800 X133.291 Y93.410 E106.31347
G0 F9000 X132.726 Y93.410
G1 F1800 X126.156 Y86.841 E106.77698
G0 F9000 X125.590 Y86.841
G1 F1800 X132.160 Y93.410 E107.24050
G0 F9000 X131.594 Y93.410
G1 F1800 X125.024 Y86.841 E107.70401
G0 F9000 X124.459 Y86.841
G1 F1800 X131.029 Y93.410 E108.16753
G0 F9000 X130.463 Y93.410
G1 F1800 X123.893 Y86.841 E108.63104
G0 F9000 X123.327 Y86.841
G1 F1800 X129.897 Y93.410 E109.09455
G0 F9000 X129.331 Y93.410
G1 F1800 X122.762 Y86.841 E109.55803
G0 F9000 X122.196 Y86.841
G1 F1800 X128.766 Y93.410 E110.02155
G0 F9000 X128.200 Y93.410
G1 F1800 X121.630 Y86.841 E110.48506
G0 F9000 X121.065 Y86.841
G1 F1800 X127.634 Y93.410 E110.94854
G0 F9000 X127.069 Y93.410
G1 F1800 X120.499 Y86.841 E111.41205
G0 F9000 X104.339 Y97.833
G1 F1800 X119.665 Y113.159 E112.49338
G0 F9000 X119.099 Y113.159
G1 F1800 X104.339 Y98.399 E113.53478
G0 F9000 X104.339 Y98.965
G1 F1800 X118.533 Y113.159 E114.53624
G0 F9000 X117.968 Y113.159
G1 F1800 X104.339 Y99.530 E115.49784
G0 F9000 X104.339 Y100.096
G1 F1800 X117.402 Y113.159 E116.41951
G0 F9000 X116.836 Y113.159
G1 F1800 X104.339 Y100.662 E117.30124
G0 F9000 X104.339 Y101.227
G1 F1800 X116.270 Y113.159 E118.14307
G0 F9000 X115.704 Y113.159
G1 F1800 X104.339 Y101.793 E118.94497
G0 F9000 X104.339 Y102.359
G1 F1800 X115.138 Y113.159 E119.70693
G0 F9000 X114.573 Y113.159
G1 F1800 X104.339 Y102.925 E120.42900
G0 F9000 X104.339 Y103.491
G1 F1800 X114.007 Y113.159 E121.11113
G0 F9000 X113.441 Y113.159
G1 F1800 X104.339 Y104.057 E121.75332
G0 F9000 X104.339 Y104.622
G1 F1800 X112.876 Y113.159 E122.35565
G0 F9000 X112.310 Y113.159
G1 F1800 X104.339 Y105.188 E122.91805
G0 F9000 X104.339 Y105.754
G1 F1800 X111.744 Y113.159 E123.44051
G0 F9000 X111.179 Y113.159
G1 F1800 X104.339 Y106.319 E123.92311
G0 F9000 X104.339 Y106.885
G1 F1800 X110.613 Y113.159 E124.36578
G0 F9000 X110.047 Y113.159
G1 F1800 X104.339 Y107.451 E124.76851
G0 F9000 X104.340 Y108.017
G1 F1800 X109.482 Y113.159 E125.13130
G0 F9000 X108.916 Y113.159
G1 F1800 X104.340 Y108.583 E125.45416
G0 F9000 X104.340 Y109.149
G1 F1800 X108.350 Y113.159 E125.73709
G0 F9000 X107.784 Y113.159
G1 F1800 X104.340 Y109.714 E125.98012
G0 F9000 X104.340 Y110.280
G1 F1800 X107.219 Y113.159 E126.18325
G0 F9000 X106.653 Y113.159
G1 F1800 X104.340 Y110.846 E126.34644
G0 F9000 X104.340 Y111.411
G1 F1800 X106.087 Y113.159 E126.46974
G0 F9000 X105.522 Y113.159
G1 F1800 X104.340 Y111.977 E126.55313
G0 F9000 X104.340 Y112.543
G1 F1800 X104.956 Y113.159 E126.59660
G1 F2400 E122.59660
G0 F9000 X96.699 Y114.200
;TYPE:SUPPORT
G1 F2400 E126.59660
G1 F1800 X57.999 Y114.200 E128.52735
G1 X57.999 Y85.600 E129.95421
G1 X96.699 Y85.600 E131.88496
G1 X96.699 Y114.200 E133.31182
G0 F9000 X96.599 Y114.190
G0 X90.099 Y109.952
G0 X89.999 Y109.962
G1 F1800 X89.999 Y105.838 E133.51757
G1 X64.699 Y105.997 E134.77981
G1 X64.699 Y109.803 E134.96969
G1 X89.999 Y109.962 E136.23194
G0 F9000 X90.099 Y109.952
G0 X90.099 Y93.952
G0 X89.999 Y93.962
G1 F1800 X89.999 Y89.838 E136.43769
G1 X64.699 Y89.997 E137.69994
G1 X64.699 Y93.803 E137.88982
G1 X89.999 Y93.962 E139.15206
G0 F9000 X89.938 Y93.310
G1 F1800 X96.758 Y93.310 E139.49232
G0 F9000 X96.599 Y93.310
G0 X96.599 Y98.642
G0 X96.758 Y98.642
G1 F1800 X57.938 Y98.642 E141.42905
G0 F9000 X58.099 Y98.642
G0 X58.099 Y93.310
G0 X57.938 Y93.310
G1 F1800 X64.758 Y93.310 E141.76930
G0 F9000 X64.599 Y93.310
G0 X64.558 Y93.944
G0 X66.649 Y93.915
G0 X66.650 Y93.755
G1 F1800 X66.650 Y106.046 E142.38251
G0 F9000 X66.649 Y105.884
G0 X90.140 Y105.697
G0 X90.140 Y110.103
G0 X66.649 Y109.915
G0 X66.650 Y109.755
G1 F1800 X66.650 Y114.260 E142.60726
G0 F9000 X66.650 Y114.100
G0 X64.558 Y109.944
G0 X64.599 Y109.306
G0 X64.758 Y109.306
G1 F1800 X57.938 Y109.306 E142.94751
G0 F9000 X58.099 Y109.306
G0 X58.099 Y103.974
G0 X57.938 Y103.974
G1 F1800 X96.758 Y103.974 E144.88425
G0 F9000 X96.599 Y103.974
G0 X96.599 Y109.306
G0 X96.758 Y109.306
G1 F1800 X89.938 Y109.306 E145.22450
G0 F9000 X90.099 Y109.306
G0 X90.140 Y110.103
G0 X87.978 Y110.049
G0 X87.978 Y109.890
G1 F1800 X87.978 Y114.260 E145.44252
G0 F9000 X87.978 Y114.100
G0 X82.646 Y114.100
G0 X82.646 Y114.260
G1 F1800 X82.646 Y109.856 E145.66224
G0 F9000 X82.646 Y110.015
G0 X64.558 Y109.944
G0 X64.558 Y105.856
G0 X82.646 Y105.784
G0 X82.646 Y105.945
G1 F1800 X82.646 Y93.856 E146.26536
G0 F9000 X82.646 Y94.015
G0 X64.558 Y93.944
G0 X64.558 Y89.856
G0 X82.646 Y89.784
G0 X82.646 Y89.945
G1 F1800 X82.646 Y85.540 E146.48513
G0 F9000 X82.646 Y85.700
G0 X87.978 Y85.700
G0 X87.978 Y85.540
G1 F1800 X87.978 Y89.911 E146.70320
G0 F9000 X87.978 Y89.750
G0 X90.140 Y89.697
G0 X90.140 Y94.103
G0 X87.978 Y94.049
G0 X87.978 Y93.890
G1 F1800 X87.978 Y105.911 E147.30293
G0 F9000 X87.978 Y105.750
G0 X90.140 Y105.697
G0 X93.310 Y114.100
G0 X93.310 Y114.260
G1 F1800 X93.310 Y85.540 E148.73577
G0 F9000 X93.310 Y85.700
G0 X96.599 Y87.978
G0 X96.758 Y87.978
G1 F1800 X57.938 Y87.978 E150.67251
G0 F9000 X58.099 Y87.978
G0 X61.318 Y85.700
G0 X61.318 Y85.540
G1 F1800 X61.318 Y114.260 E152.10536
G0 F9000 X61.318 Y114.100
G0 X71.982 Y114.100
G0 X71.982 Y114.260
G1 F1800 X71.982 Y109.789 E152.32842
G0 F9000 X71.981 Y109.948
G0 X64.558 Y109.944
G0 X64.558 Y105.856
G0 X71.981 Y105.851
G0 X71.982 Y106.012
G1 F1800 X71.982 Y93.789 E152.93822
G0 F9000 X71.981 Y93.948
G0 X64.558 Y93.944
G0 X64.558 Y89.856
G0 X71.981 Y89.851
G0 X71.982 Y90.012
G1 F1800 X71.982 Y85.540 E153.16133
G0 F9000 X71.982 Y85.700
G0 X66.650 Y85.700
G0 X66.650 Y85.540
G1 F1800 X66.650 Y90.046 E153.38614
G0 F9000 X66.649 Y89.884
G0 X77.314 Y89.817
G0 X77.314 Y89.978
G1 F1800 X77.314 Y85.540 E153.60755
G0 F9000 X77.314 Y85.700
G0 X90.140 Y89.697
G0 X90.140 Y94.103
G0 X77.314 Y93.982
G0 X77.314 Y93.823
