;Generated with Cura_SteamEngine 15.01
; Default start code
G28 ; Home extruder
G1 Z15 F100
M107 ; Turn off fan
G90 ; Absolute positioning
M82 ; Extruder in absolute mode
M190 S50
; Activate all used extruder
M104 T0 S210
G92 E0 ; Reset extruder position
; Wait for all used extruders to reach temperature
M109 T0 S210
;Layer count: 109
;LAYER:0
M107
G0 F9000 X55.716 Y81.912 Z0.300
;TYPE:SKIRT
G1 F1800 X56.412 Y81.597 E0.03811
G1 X57.151 Y81.447 E0.07574
G1 X97.869 Y81.466 E2.10716
G1 X98.605 Y81.618 E2.14466
G1 X99.284 Y81.926 E2.18186
G1 X99.890 Y82.361 E2.21907
G1 X99.962 Y82.443 E2.22452
G1 X100.094 Y82.293 E2.23449
G1 X100.709 Y81.867 E2.27181
G1 X101.374 Y81.557 E2.30841
G1 X102.146 Y81.401 E2.34771
G1 X141.008 Y81.419 E4.28654
G1 X142.909 Y81.419 E4.38138
G1 X143.641 Y81.586 E4.41884
G1 X144.297 Y81.877 E4.45464
G1 X145.057 Y82.416 E4.50113
G1 X145.761 Y83.386 E4.56092
G1 X146.088 Y84.393 E4.61375
G1 X146.109 Y85.291 E4.65856
G1 X146.104 Y93.200 E5.05314
G1 X146.040 Y93.769 E5.08171
G1 X145.818 Y94.469 E5.11835
G1 X145.442 Y95.131 E5.15633
G1 X144.912 Y95.726 E5.19608
G1 X144.311 Y96.148 E5.23272
G1 X143.636 Y96.463 E5.26988
G1 X142.864 Y96.619 E5.30918
G1 X127.604 Y96.611 E6.07050
G1 X127.600 Y103.413 E6.40985
G1 X142.879 Y103.420 E7.17213
G1 X143.605 Y103.576 E7.20917
G1 X144.281 Y103.872 E7.24599
G1 X144.928 Y104.331 E7.28557
G1 X145.421 Y104.896 E7.32298
G1 X145.796 Y105.524 E7.35947
G1 X146.078 Y106.393 E7.40505
G1 X146.099 Y107.291 E7.44986
G1 X146.094 Y115.200 E7.84444
G1 X146.030 Y115.769 E7.87301
G1 X145.808 Y116.469 E7.90965
G1 X145.432 Y117.131 E7.94763
G1 X144.895 Y117.734 E7.98791
G1 X144.290 Y118.153 E8.02463
G1 X143.625 Y118.463 E8.06123
G1 X142.853 Y118.619 E8.10053
G1 X103.991 Y118.601 E10.03936
G1 X102.090 Y118.601 E10.13420
G1 X101.358 Y118.434 E10.17166
G1 X100.702 Y118.143 E10.20746
G1 X100.061 Y117.689 E10.24665
G1 X99.944 Y117.555 E10.25553
G1 X99.870 Y117.636 E10.26100
G1 X99.283 Y118.066 E10.29730
G1 X98.587 Y118.381 E10.33542
G1 X97.848 Y118.531 E10.37304
G1 X57.108 Y118.512 E12.40557
G1 X56.394 Y118.354 E12.44205
G1 X55.732 Y118.065 E12.47809
G1 X55.109 Y117.617 E12.51637
G1 X54.609 Y117.052 E12.55401
G1 X54.252 Y116.430 E12.58979
G1 X54.016 Y115.722 E12.62702
G1 X53.958 Y115.138 E12.65630
G1 X53.972 Y84.816 E14.16907
G1 X54.030 Y84.242 E14.19786
G1 X54.266 Y83.523 E14.23561
G1 X54.639 Y82.884 E14.27252
G1 X55.129 Y82.342 E14.30898
G1 X55.716 Y81.912 E14.34528
G1 F2400 E10.34528
G0 F9000 X57.772 Y85.247
;TYPE:WALL-INNER
G1 F2400 E14.34528
G1 F1800 X97.241 Y85.266 E16.31440
G1 X97.227 Y114.731 E17.78441
G1 X57.758 Y114.712 E19.75353
G1 X57.772 Y85.247 E21.22354
G0 F9000 X62.997 Y87.783
G1 F1800 X62.916 Y88.032 E21.23661
G1 X62.903 Y91.763 E21.42275
G1 X62.924 Y91.963 E21.43278
G1 X62.997 Y92.183 E21.44434
G1 X63.113 Y92.385 E21.45597
G1 X63.280 Y92.565 E21.46822
G1 X63.463 Y92.692 E21.47933
G1 X63.659 Y92.781 E21.49007
G1 X63.887 Y92.830 E21.50170
G1 X91.122 Y92.843 E22.86046
G1 X91.364 Y92.788 E22.87284
G1 X91.567 Y92.691 E22.88407
G1 X91.741 Y92.566 E22.89476
G1 X91.896 Y92.393 E22.90635
G1 X92.012 Y92.193 E22.91788
G1 X92.092 Y91.944 E22.93093
G1 X92.105 Y88.214 E23.11702
G1 X92.084 Y88.017 E23.12690
G1 X92.014 Y87.798 E23.13838
G1 X91.896 Y87.593 E23.15018
G1 X91.729 Y87.414 E23.16239
G1 X91.544 Y87.285 E23.17364
G1 X91.348 Y87.197 E23.18436
G1 X91.122 Y87.148 E23.19590
G1 X63.886 Y87.135 E24.55471
G1 X63.648 Y87.189 E24.56688
G1 X63.440 Y87.285 E24.57831
G1 X63.267 Y87.414 E24.58908
G1 X63.114 Y87.581 E24.60038
G1 X62.997 Y87.783 E24.61202
G0 F9000 X62.998 Y92.181
G0 X63.877 Y107.135
G1 F1800 X63.638 Y107.189 E24.62425
G1 X63.432 Y107.285 E24.63559
G1 X63.258 Y107.412 E24.64633
G1 X63.103 Y107.583 E24.65785
G1 X62.987 Y107.785 E24.66947
G1 X62.907 Y108.032 E24.68242
G1 X62.894 Y111.763 E24.86856
G1 X62.915 Y111.960 E24.87845
G1 X62.985 Y112.180 E24.88997
G1 X63.103 Y112.385 E24.90177
G1 X63.272 Y112.566 E24.91412
G1 X63.455 Y112.692 E24.92521
G1 X63.648 Y112.781 E24.93581
G1 X63.877 Y112.830 E24.94749
G1 X91.113 Y112.843 E26.30630
G1 X91.353 Y112.788 E26.31859
G1 X91.559 Y112.691 E26.32995
G1 X91.732 Y112.565 E26.34062
G1 X91.885 Y112.395 E26.35203
G1 X92.002 Y112.196 E26.36355
G1 X92.083 Y111.944 E26.37676
G1 X92.096 Y108.214 E26.56285
G1 X92.075 Y108.015 E26.57283
G1 X92.002 Y107.795 E26.58440
G1 X91.886 Y107.593 E26.59602
G1 X91.720 Y107.415 E26.60816
G1 X91.535 Y107.285 E26.61944
G1 X91.337 Y107.196 E26.63027
G1 X91.112 Y107.148 E26.64175
G1 X63.877 Y107.135 E28.00051
G0 F9000 X63.922 Y107.535
;TYPE:WALL-OUTER
G1 F1800 X63.768 Y107.570 E28.00839
G1 X63.637 Y107.631 E28.01560
G1 X63.527 Y107.711 E28.02238
G1 X63.428 Y107.820 E28.02973
G1 X63.355 Y107.948 E28.03708
G1 X63.307 Y108.096 E28.04484
G1 X63.294 Y111.742 E28.22674
G1 X63.308 Y111.877 E28.23352
G1 X63.353 Y112.017 E28.24085
G1 X63.427 Y112.146 E28.24827
G1 X63.535 Y112.261 E28.25614
G1 X63.653 Y112.343 E28.26331
G1 X63.775 Y112.399 E28.27001
G1 X63.920 Y112.430 E28.27741
G1 X91.068 Y112.443 E29.63183
G1 X91.222 Y112.408 E29.63971
G1 X91.354 Y112.346 E29.64698
G1 X91.463 Y112.266 E29.65373
G1 X91.560 Y112.158 E29.66097
G1 X91.635 Y112.031 E29.66833
G1 X91.683 Y111.881 E29.67618
G1 X91.696 Y108.235 E29.85809
G1 X91.682 Y108.100 E29.86486
G1 X91.635 Y107.960 E29.87222
G1 X91.562 Y107.832 E29.87958
G1 X91.455 Y107.718 E29.88738
G1 X91.337 Y107.634 E29.89460
G1 X91.212 Y107.579 E29.90142
G1 X91.069 Y107.548 E29.90872
G1 X63.922 Y107.535 E31.26309
G0 F9000 X63.923 Y107.236
G0 X63.104 Y107.584
G0 X57.658 Y114.902
G0 X57.358 Y114.969
G1 F1800 X57.372 Y84.989 E32.75879
G1 X57.376 Y84.951 E32.76070
G1 X57.400 Y84.899 E32.76356
G1 X57.439 Y84.864 E32.76617
G1 X57.492 Y84.847 E32.76895
G1 X97.521 Y84.866 E34.76600
G1 X97.574 Y84.883 E34.76878
G1 X97.594 Y84.897 E34.77000
G1 X97.614 Y84.921 E34.77156
G1 X97.629 Y84.947 E34.77305
G1 X97.637 Y84.970 E34.77427
G1 X97.641 Y85.008 E34.77618
G1 X97.627 Y114.986 E36.27178
G1 X97.623 Y115.027 E36.27384
G1 X97.601 Y115.076 E36.27652
G1 X97.560 Y115.114 E36.27931
G1 X97.507 Y115.131 E36.28209
G1 X57.477 Y115.112 E38.27919
G1 X57.425 Y115.095 E38.28192
G1 X57.384 Y115.056 E38.28474
G1 X57.362 Y115.006 E38.28747
G1 X57.358 Y114.969 E38.28932
G0 F9000 X57.658 Y114.902
G0 X63.722 Y92.691
G0 X63.786 Y92.399
G1 F1800 X63.930 Y92.430 E38.29667
G1 X91.077 Y92.443 E39.65104
G1 X91.232 Y92.408 E39.65897
G1 X91.362 Y92.346 E39.66616
G1 X91.472 Y92.267 E39.67291
G1 X91.571 Y92.157 E39.68030
G1 X91.644 Y92.030 E39.68760
G1 X91.692 Y91.881 E39.69541
G1 X91.705 Y88.235 E39.87731
G1 X91.691 Y88.100 E39.88409
G1 X91.646 Y87.961 E39.89138
G1 X91.572 Y87.832 E39.89879
G1 X91.465 Y87.717 E39.90663
G1 X91.346 Y87.634 E39.91387
G1 X91.223 Y87.579 E39.92059
G1 X91.079 Y87.548 E39.92794
G1 X63.931 Y87.535 E41.28236
G1 X63.778 Y87.570 E41.29019
G1 X63.645 Y87.631 E41.29749
G1 X63.536 Y87.712 E41.30427
G1 X63.439 Y87.819 E41.31147
G1 X63.364 Y87.947 E41.31887
G1 X63.316 Y88.096 E41.32668
G1 X63.303 Y91.742 E41.50858
G1 X63.317 Y91.878 E41.51540
G1 X63.364 Y92.018 E41.52277
G1 X63.437 Y92.146 E41.53012
G1 X63.544 Y92.261 E41.53796
G1 X63.662 Y92.343 E41.54513
G1 X63.786 Y92.399 E41.55192
G0 F9000 X63.826 Y92.959
;TYPE:SKIN
G1 F1800 X77.868 Y107.000 E42.54262
G0 F9000 X78.433 Y107.000
G1 F1800 X64.402 Y92.969 E43.53258
G0 F9000 X64.968 Y92.969
G1 F1800 X78.999 Y107.000 E44.52255
G0 F9000 X79.565 Y107.001
G1 F1800 X65.534 Y92.970 E45.51251
G0 F9000 X66.100 Y92.970
G1 F1800 X80.131 Y107.001 E46.50247
G0 F9000 X80.697 Y107.002
G1 F1800 X66.666 Y92.970 E47.49247
G0 F9000 X67.232 Y92.971
G1 F1800 X81.263 Y107.002 E48.48243
G0 F9000 X81.829 Y107.002
G1 F1800 X67.798 Y92.971 E49.47240
G0 F9000 X68.364 Y92.971
G1 F1800 X82.395 Y107.002 E50.46236
G0 F9000 X82.961 Y107.002
G1 F1800 X68.930 Y92.971 E51.45232
G0 F9000 X69.495 Y92.971
G1 F1800 X83.526 Y107.002 E52.44228
G0 F9000 X84.093 Y107.003
G1 F1800 X70.062 Y92.972 E53.43225
G0 F9000 X70.627 Y92.972
G1 F1800 X84.659 Y107.003 E54.42225
G0 F9000 X85.225 Y107.004
G1 F1800 X71.194 Y92.973 E55.41221
G0 F9000 X71.760 Y92.973
G1 F1800 X85.791 Y107.004 E56.40217
G0 F9000 X86.356 Y107.004
G1 F1800 X72.325 Y92.973 E57.39213
G0 F9000 X72.892 Y92.973
G1 F1800 X86.923 Y107.005 E58.38213
G0 F9000 X87.488 Y107.005
G1 F1800 X73.457 Y92.973 E59.37213
G0 F9000 X74.024 Y92.974
G1 F1800 X88.054 Y107.005 E60.36206
G0 F9000 X88.620 Y107.005
G1 F1800 X74.589 Y92.974 E61.35202
G0 F9000 X75.155 Y92.974
G1 F1800 X89.186 Y107.005 E62.34198
G0 F9000 X89.753 Y107.006
G1 F1800 X75.721 Y92.975 E63.33198
G0 F9000 X76.287 Y92.975
G1 F1800 X90.318 Y107.006 E64.32194
G0 F9000 X90.884 Y107.006
G1 F1800 X76.854 Y92.976 E65.31184
G0 F9000 X77.419 Y92.976
G1 F1800 X91.606 Y107.162 E66.31277
G0 F9000 X92.063 Y107.620
G1 F1800 X97.087 Y112.644 E66.66724
G0 F9000 X97.087 Y113.209
G1 F1800 X92.235 Y108.357 E67.00958
G0 F9000 X92.232 Y108.920
G1 F1800 X97.087 Y113.774 E67.35209
G0 F9000 X97.087 Y114.340
G1 F1800 X92.230 Y109.484 E67.69474
G0 F9000 X92.229 Y110.048
G1 F1800 X96.770 Y114.589 E68.01513
G0 F9000 X96.204 Y114.589
G1 F1800 X92.227 Y110.612 E68.29573
G0 F9000 X92.225 Y111.175
G1 F1800 X95.639 Y114.589 E68.53661
G0 F9000 X95.072 Y114.588
G1 F1800 X92.223 Y111.739 E68.73762
G0 F9000 X92.140 Y112.222
G1 F1800 X94.506 Y114.588 E68.90455
G0 F9000 X93.940 Y114.588
G1 F1800 X91.918 Y112.565 E69.04725
G0 F9000 X91.609 Y112.822
G1 F1800 X93.374 Y114.588 E69.17182
G0 F9000 X92.809 Y114.588
G1 F1800 X91.190 Y112.969 E69.28605
G0 F9000 X90.637 Y112.982
G1 F1800 X92.242 Y114.587 E69.39929
G0 F9000 X91.677 Y114.587
G1 F1800 X90.071 Y112.982 E69.51256
G0 F9000 X89.505 Y112.981
G1 F1800 X91.110 Y114.586 E69.62581
G0 F9000 X90.545 Y114.586
G1 F1800 X88.939 Y112.981 E69.73908
G0 F9000 X88.374 Y112.981
G1 F1800 X89.979 Y114.586 E69.85232
G0 F9000 X89.412 Y114.585
G1 F1800 X87.807 Y112.980 E69.96556
G0 F9000 X87.242 Y112.980
G1 F1800 X88.847 Y114.585 E70.07881
G0 F9000 X88.280 Y114.585
G1 F1800 X86.676 Y112.980 E70.19201
G0 F9000 X86.110 Y112.980
G1 F1800 X87.715 Y114.585 E70.30525
G0 F9000 X87.149 Y114.585
G1 F1800 X85.544 Y112.980 E70.41850
G0 F9000 X84.977 Y112.979
G1 F1800 X86.583 Y114.584 E70.53177
G0 F9000 X86.017 Y114.584
G1 F1800 X84.412 Y112.979 E70.64501
G0 F9000 X83.846 Y112.979
G1 F1800 X85.451 Y114.583 E70.75822
G0 F9000 X84.885 Y114.583
G1 F1800 X83.280 Y112.978 E70.87146
G0 F9000 X82.714 Y112.978
G1 F1800 X84.319 Y114.583 E70.98470
G0 F9000 X83.753 Y114.583
G1 F1800 X82.148 Y112.978 E71.09794
G0 F9000 X81.582 Y112.977
G1 F1800 X83.187 Y114.583 E71.21122
G0 F9000 X82.621 Y114.583
G1 F1800 X81.016 Y112.977 E71.32450
G0 F9000 X80.450 Y112.977
G1 F1800 X82.055 Y114.582 E71.43774
G0 F9000 X81.489 Y114.582
G1 F1800 X79.884 Y112.977 E71.55098
G0 F9000 X79.318 Y112.977
G1 F1800 X80.923 Y114.581 E71.66419
G0 F9000 X80.357 Y114.581
G1 F1800 X78.752 Y112.976 E71.77743
G0 F9000 X78.186 Y112.976
G1 F1800 X79.792 Y114.581 E71.89070
G0 F9000 X79.225 Y114.580
G1 F1800 X77.621 Y112.976 E72.00388
G0 F9000 X77.054 Y112.975
G1 F1800 X78.659 Y114.580 E72.11712
G0 F9000 X78.093 Y114.580
G1 F1800 X76.489 Y112.975 E72.23032
G0 F9000 X75.922 Y112.975
G1 F1800 X77.527 Y114.580 E72.34356
G0 F9000 X76.962 Y114.580
G1 F1800 X75.357 Y112.975 E72.45681
G0 F9000 X74.791 Y112.975
G1 F1800 X76.395 Y114.579 E72.56998
G0 F9000 X75.830 Y114.579
G1 F1800 X74.224 Y112.974 E72.68325
G0 F9000 X73.659 Y112.974
G1 F1800 X75.263 Y114.578 E72.79642
G0 F9000 X74.698 Y114.578
G1 F1800 X73.093 Y112.974 E72.90963
G0 F9000 X72.527 Y112.973
G1 F1800 X74.132 Y114.578 E73.02287
G0 F9000 X73.565 Y114.578
G1 F1800 X71.961 Y112.973 E73.13608
G0 F9000 X71.395 Y112.973
G1 F1800 X73.000 Y114.578 E73.24932
G0 F9000 X72.434 Y114.578
G1 F1800 X70.829 Y112.973 E73.36256
G0 F9000 X70.263 Y112.973
G1 F1800 X71.868 Y114.577 E73.47577
G0 F9000 X71.302 Y114.577
G1 F1800 X69.697 Y112.972 E73.58901
G0 F9000 X69.131 Y112.972
G1 F1800 X70.736 Y114.576 E73.70221
G0 F9000 X70.170 Y114.576
G1 F1800 X68.566 Y112.972 E73.81539
G0 F9000 X67.999 Y112.971
G1 F1800 X69.604 Y114.576 E73.92863
G0 F9000 X69.038 Y114.576
G1 F1800 X67.433 Y112.971 E74.04187
G0 F9000 X66.867 Y112.970
G1 F1800 X68.472 Y114.576 E74.15514
G0 F9000 X67.906 Y114.575
G1 F1800 X66.301 Y112.970 E74.26839
G0 F9000 X65.736 Y112.970
G1 F1800 X67.340 Y114.575 E74.38159
G0 F9000 X66.774 Y114.575
G1 F1800 X65.169 Y112.970 E74.49483
G0 F9000 X64.604 Y112.970
G1 F1800 X66.208 Y114.574 E74.60800
G0 F9000 X65.642 Y114.574
G1 F1800 X64.038 Y112.970 E74.72118
G0 F9000 X63.945 Y114.573
G1 F1800 X57.900 Y108.529 E75.14765
G0 F9000 X57.900 Y109.094
G1 F1800 X63.378 Y114.573 E75.53419
G0 F9000 X62.813 Y114.573
G1 F1800 X57.900 Y109.660 E75.88082
G0 F9000 X57.899 Y110.225
G1 F1800 X62.246 Y114.572 E76.18753
G0 F9000 X61.680 Y114.572
G1 F1800 X57.899 Y110.790 E76.45433
G0 F9000 X57.899 Y111.356
G1 F1800 X61.115 Y114.572 E76.68124
G0 F9000 X60.548 Y114.571
G1 F1800 X57.898 Y111.921 E76.86821
G0 F9000 X57.898 Y112.487
G1 F1800 X59.983 Y114.571 E77.01528
G0 F9000 X59.417 Y114.571
G1 F1800 X57.898 Y113.052 E77.12246
G0 F9000 X57.897 Y113.617
G1 F1800 X58.851 Y114.571 E77.18977
G0 F9000 X58.285 Y114.571
G1 F1800 X57.897 Y114.183 E77.21714
G0 F9000 X62.754 Y111.686
G1 F1800 X57.901 Y106.833 E77.55955
G0 F9000 X57.900 Y107.398
G1 F1800 X65.076 Y114.573 E78.06582
G0 F9000 X64.510 Y114.573
G1 F1800 X57.900 Y107.963 E78.53219
G0 F9000 X57.901 Y106.267
G1 F1800 X62.756 Y111.122 E78.87474
G0 F9000 X62.758 Y110.558
G1 F1800 X57.902 Y105.702 E79.21735
G0 F9000 X57.902 Y105.136
G1 F1800 X62.759 Y109.994 E79.56008
G0 F9000 X62.762 Y109.431
G1 F1800 X57.902 Y104.571 E79.90298
G0 F9000 X57.902 Y104.006
G1 F1800 X62.764 Y108.867 E80.24598
G0 F9000 X62.766 Y108.304
G1 F1800 X57.902 Y103.440 E80.58916
G0 F9000 X57.903 Y102.875
G1 F1800 X62.833 Y107.805 E80.93700
G0 F9000 X63.038 Y107.444
G1 F1800 X57.903 Y102.309 E81.29930
G0 F9000 X57.903 Y101.744
G1 F1800 X63.337 Y107.178 E81.68270
G0 F9000 X63.745 Y107.020
G1 F1800 X57.904 Y101.179 E82.09481
G0 F9000 X57.904 Y100.613
G1 F1800 X64.285 Y106.994 E82.54503
G0 F9000 X64.850 Y106.994
G1 F1800 X57.904 Y100.047 E83.03514
G0 F9000 X57.904 Y99.482
G1 F1800 X65.417 Y106.995 E83.56522
G0 F9000 X65.982 Y106.995
G1 F1800 X57.904 Y98.917 E84.13517
G0 F9000 X57.905 Y98.352
G1 F1800 X66.548 Y106.995 E84.74498
G0 F9000 X67.115 Y106.995
G1 F1800 X57.905 Y97.786 E85.39476
G0 F9000 X57.905 Y97.220
G1 F1800 X67.680 Y106.995 E86.08444
G0 F9000 X68.246 Y106.995
G1 F1800 X57.906 Y96.655 E86.81398
G0 F9000 X57.906 Y96.090
G1 F1800 X68.812 Y106.996 E87.58346
G0 F9000 X69.378 Y106.996
G1 F1800 X57.907 Y95.525 E88.39280
G0 F9000 X57.907 Y94.959
G1 F1800 X69.944 Y106.997 E89.24211
G0 F9000 X70.510 Y106.997
G1 F1800 X57.907 Y94.393 E90.13136
G0 F9000 X57.907 Y93.828
G1 F1800 X71.076 Y106.997 E91.06050
G0 F9000 X71.642 Y106.997
G1 F1800 X57.907 Y93.263 E92.02954
G0 F9000 X57.907 Y92.697
G1 F1800 X72.208 Y106.997 E93.03852
G0 F9000 X72.774 Y106.997
G1 F1800 X57.908 Y92.132 E94.08736
G0 F9000 X57.908 Y91.566
G1 F1800 X73.340 Y106.998 E95.17617
G0 F9000 X73.906 Y106.998
G1 F1800 X57.909 Y91.001 E96.30485
G0 F9000 X57.909 Y90.436
G1 F1800 X74.472 Y106.999 E97.47346
G0 F9000 X75.038 Y106.999
G1 F1800 X57.909 Y89.870 E98.68200
G0 F9000 X57.909 Y89.305
G1 F1800 X75.603 Y106.999 E99.93041
G0 F9000 X76.170 Y107.000
G1 F1800 X57.909 Y88.739 E101.21882
G0 F9000 X57.910 Y88.174
G1 F1800 X76.735 Y107.000 E102.54706
G0 F9000 X77.301 Y107.000
G1 F1800 X57.910 Y87.609 E103.91520
G0 F9000 X57.910 Y87.043
G1 F1800 X62.778 Y91.911 E104.25866
G0 F9000 X62.764 Y91.332
G1 F1800 X57.911 Y86.478 E104.60111
